X:504
T:Lovat's Restoration
R:Strathspey
B:The Athole Collection
M:C
L:1/8
K:D
f|:d<d f>d e>df>d|B<B e>B c>A e<A|1 d>df>d e>d f<d|F<F d>F E2 D>f:|2
d>df>d e>d f<d|e>cd>F E2D||B|A<F d>F e>Fd>F|A<F d>F E>F G<B|
A<F d>F e<cd>f|A<dF<d E2 D>B|A<F d>F e>Fd>F|A<F d>F E>F G<g|
a>f e<c d>f B<d|A<dF<d E2 D>f||

